generator/images/other/Group.svg

<svg width="405" height="548" viewBox="0 0 405 548" fill="none" xmlns="http://www.w3.org/2000/svg">
<path d="M545 339.5C545 433.112 465.137 509 366.621 509C268.104 509 462.774 316.739 188.241 339.5C-86.2916 362.261 268.104 170 366.621 170C465.137 170 545 245.888 545 339.5Z" fill="#FFC359"/>
<path d="M37.9445 302.366L36.1998 345.617C37.0655 349.403 38.1942 353.124 39.5778 356.753L42.2123 291.446C40.5339 294.981 39.1077 298.63 37.9445 302.366Z" fill="#FFC359"/>
<path d="M50.2523 278.194L46.5214 370.678C47.6583 372.508 48.8704 374.324 50.1865 376.122L54.3406 273.143C52.9123 274.792 51.5495 276.476 50.2523 278.194Z" fill="#FFC359"/>
<path d="M62.1125 265.258L57.2955 384.666C58.472 385.941 59.7251 387.168 61.0129 388.385L66.1137 261.942C64.7393 263.011 63.431 264.152 62.1125 265.258Z" fill="#FFC359"/>
<path d="M73.7999 256.606L68.2347 394.563C69.4534 395.501 70.707 396.43 71.9904 397.331L77.7604 254.298C76.4109 255.035 75.0944 255.809 73.7999 256.606Z" fill="#FFC359"/>
<path d="M85.3867 250.583L79.2779 402.015C80.5071 402.741 81.7658 403.448 83.054 404.135L89.3126 248.992C87.9803 249.493 86.6717 250.023 85.3867 250.583Z" fill="#FFC359"/>
<path d="M96.9187 246.498L90.3854 407.741C91.6309 408.302 92.8997 408.853 94.1809 409.381L100.803 245.375C99.4974 245.73 98.1975 246.091 96.9187 246.498Z" fill="#FFC359"/>
<path d="M108.353 243.396L101.551 412.157L101.924 412.287C103.073 412.683 104.217 413.062 105.361 413.441L112.258 242.452C110.965 242.756 109.663 243.071 108.353 243.396Z" fill="#FFC359"/>
<path d="M119.804 240.743L112.742 415.822C114.015 416.221 115.286 416.615 116.556 417.003L123.723 239.897C122.403 240.188 121.107 240.457 119.804 240.743Z" fill="#FFC359"/>
<path d="M131.212 238.449L123.95 419.172L127.763 420.243L135.137 237.718L131.212 238.449Z" fill="#FFC359"/>
<path d="M142.663 236.38L135.166 422.206C136.438 422.533 137.717 422.854 138.984 423.163L146.551 235.728L142.663 236.38Z" fill="#FFC359"/>
<path d="M154.058 234.516L146.395 424.908C147.672 425.201 148.954 425.49 150.239 425.775L157.962 233.893L154.058 234.516Z" fill="#FFC359"/>
<path d="M165.487 232.71L157.638 427.278C158.919 427.531 160.2 427.772 161.47 428.012L169.373 232.092L165.487 232.71Z" fill="#FFC359"/>
<path d="M176.904 230.882L168.9 429.311C170.188 429.512 171.477 429.713 172.755 429.902L180.792 230.229L176.904 230.882Z" fill="#FFC359"/>
<path d="M188.324 228.875L180.171 430.982C181.437 431.159 182.734 431.309 184.013 431.464L192.199 228.102C190.926 228.383 189.631 228.629 188.324 228.875Z" fill="#FFC359"/>
<path d="M199.757 226.525L191.456 432.286C192.742 432.413 194.028 432.539 195.309 432.648L203.656 225.597C202.373 225.913 201.073 226.222 199.757 226.525Z" fill="#FFC359"/>
<path d="M211.238 223.556L202.78 433.225C204.073 433.312 205.357 433.388 206.632 433.455L215.129 222.394C213.835 222.808 212.538 223.196 211.238 223.556Z" fill="#FFC359"/>
<path d="M222.707 219.738L214.079 433.755C215.369 433.79 216.658 433.825 217.937 433.848L226.638 218.153C225.334 218.716 224.024 219.244 222.707 219.738Z" fill="#FFC359"/>
<path d="M234.261 214.518L225.436 433.869C226.733 433.864 228.02 433.849 229.299 433.824L238.213 212.296C236.919 213.071 235.602 213.811 234.261 214.518Z" fill="#FFC359"/>
<path d="M245.904 207.121L236.762 433.615C238.06 433.564 239.352 433.501 240.637 433.427L249.891 203.885C248.594 205.015 247.26 206.091 245.904 207.121Z" fill="#FFC359"/>
<path d="M257.687 196.086L248.128 432.903C249.429 432.798 250.723 432.682 252.01 432.554L261.731 190.999C260.421 192.748 259.089 194.473 257.687 196.086Z" fill="#FFC359"/>
<path d="M273.453 169.696C272.293 172.553 271.038 175.233 269.762 177.833L259.519 431.738C260.817 431.578 262.114 431.418 263.401 431.235L274.007 168.324L273.453 169.696Z" fill="#FFC359"/>
<path d="M282.31 148.002L270.945 430.133C272.235 429.937 273.533 429.714 274.84 429.464L286.578 137.921C285.148 141.21 283.726 144.571 282.31 148.002Z" fill="#FFC359"/>
<path d="M294.775 120.068L282.347 427.988C283.659 427.712 284.959 427.432 286.248 427.147L298.975 111.957C297.544 114.568 296.144 117.283 294.775 120.068Z" fill="#FFC359"/>
<path d="M306.981 98.5495L293.798 425.346C295.108 425.009 296.407 424.671 297.701 424.316L311.075 92.7873C309.675 94.6301 308.318 96.555 306.981 98.5495Z" fill="#FFC359"/>
<path d="M318.897 83.6524L305.264 422.159C306.577 421.765 307.881 421.36 309.175 420.946L322.944 79.9196C321.56 81.1146 320.212 82.3589 318.897 83.6524Z" fill="#FFC359"/>
<path d="M330.648 74.1251L316.76 418.406C318.068 417.934 319.376 417.463 320.684 416.992L334.603 71.8231C333.258 72.5339 331.94 73.3012 330.648 74.1251Z" fill="#FFC359"/>
<path d="M342.215 68.4637L328.274 414.039C329.593 413.495 330.906 412.957 332.202 412.401L346.126 67.2386C344.799 67.602 343.496 68.0104 342.215 68.4637Z" fill="#FFC359"/>
<path d="M353.666 65.6663L339.815 409.019C341.141 408.399 342.455 407.775 343.758 407.147L357.539 65.2602C356.23 65.3566 354.939 65.492 353.666 65.6663Z" fill="#FFC359"/>
<path d="M365.042 65.0237L351.39 403.295C352.715 402.602 354.034 401.892 355.337 401.176L368.89 65.2018C367.589 65.1149 366.307 65.0556 365.042 65.0237Z" fill="#FFC359"/>
<path d="M376.334 66.0242L362.989 396.82C364.318 396.024 365.641 395.234 366.947 394.426L380.175 66.6726C378.871 66.4306 377.594 66.207 376.334 66.0242Z" fill="#FFC359"/>
<path d="M387.585 68.3085L374.623 389.497C375.961 388.615 377.288 387.711 378.593 386.805L391.406 69.3291C390.107 68.9611 388.841 68.6289 387.585 68.3085Z" fill="#FFC359"/>
<path d="M398.789 71.6523L386.299 381.263C387.607 380.289 388.968 379.253 390.283 378.228L402.593 73.0854C401.336 72.5833 400.068 72.1056 398.789 71.6523Z" fill="#FFC359"/>
<path d="M409.939 76.3254L398.014 371.924C399.362 370.791 400.699 369.657 402.02 368.505L413.728 78.2686C412.481 77.5985 411.21 76.9505 409.939 76.3254Z" fill="#FFC359"/>
<path d="M421.025 82.568L409.773 361.508C411.147 360.239 412.487 358.945 413.791 357.624L424.784 85.1238C423.569 84.2256 422.3 83.3883 421.025 82.568Z" fill="#FFC359"/>
<path d="M432.035 90.7009L421.589 349.636C422.969 348.165 424.308 346.687 425.63 345.203L435.77 93.9731C434.542 92.8563 433.295 91.7445 432.035 90.7009Z" fill="#FFC359"/>
<path d="M442.959 101.131L433.484 336.006C434.872 334.295 436.227 332.571 437.553 330.851L446.651 105.326C445.443 103.881 444.212 102.482 442.959 101.131Z" fill="#FFC359"/>
<path d="M453.76 114.564L445.469 319.953C446.895 317.903 448.265 315.848 449.579 313.79L457.394 120.07C456.219 118.198 455.013 116.364 453.76 114.564Z" fill="#FFC359"/>
<path d="M464.375 132.504L457.582 300.473C459.058 297.825 460.452 295.194 461.762 292.58L467.909 140.198C466.806 137.568 465.628 135.003 464.375 132.504Z" fill="#FFC359"/>
</svg>

<svg width="405" height="548" fill="none" xmlns="http://www.w3.org/2000/svg"><path d="M545 339.5c0 93.612-79.863 169.5-178.379 169.5-98.517 0 96.153-192.261-178.38-169.5C-86.292 362.261 268.104 170 366.621 170 465.137 170 545 245.888 545 339.5zM37.944 302.366L36.2 345.617a83.514 83.514 0 003.378 11.136l2.634-65.307a82.958 82.958 0 00-4.268 10.92z" fill="#FFC359"/><path d="M50.252 278.194l-3.73 92.484a86.24 86.24 0 003.665 5.444l4.154-102.979a96.89 96.89 0 00-4.089 5.051zm11.86-12.936l-4.817 119.408c1.177 1.275 2.43 2.502 3.718 3.719l5.1-126.443c-1.374 1.069-2.682 2.21-4 3.316zm11.688-8.652l-5.565 137.957c1.218.938 2.472 1.867 3.755 2.768l5.77-143.033a88.081 88.081 0 00-3.96 2.308zm11.587-6.023l-6.11 151.432a99.405 99.405 0 003.777 2.12l6.259-155.143a82.575 82.575 0 00-3.926 1.591zm11.532-4.085l-6.534 161.243c1.246.561 2.515 1.112 3.796 1.64l6.622-164.006a94.956 94.956 0 00-3.884 1.123zm11.434-3.102l-6.802 168.761.373.13c1.149.396 2.293.775 3.437 1.154l6.897-170.989a327.7 327.7 0 00-3.905.944zm11.451-2.653l-7.062 175.079c1.273.399 2.544.793 3.814 1.181l7.167-177.106c-1.32.291-2.616.56-3.919.846zm11.408-2.294l-7.262 180.723 3.813 1.071 7.374-182.525-3.925.731zm11.451-2.069l-7.497 185.826c1.272.327 2.551.648 3.818.957l7.567-187.435-3.888.652zm11.395-1.864l-7.663 190.392c1.277.293 2.559.582 3.844.867l7.723-191.882-3.904.623zm11.429-1.806l-7.849 194.568c1.281.253 2.562.494 3.832.734l7.903-195.92-3.886.618zm11.417-1.828L168.9 429.311c1.288.201 2.577.402 3.855.591l8.037-199.673-3.888.653zm11.42-2.007l-8.153 202.107c1.266.177 2.563.327 3.842.482l8.186-203.362c-1.273.281-2.568.527-3.875.773zm11.433-2.35l-8.301 205.761c1.286.127 2.572.253 3.853.362l8.347-207.051c-1.283.316-2.583.625-3.899.928zm11.481-2.969l-8.458 209.669c1.293.087 2.577.163 3.852.23l8.497-211.061a102.83 102.83 0 01-3.891 1.162zm11.469-3.818l-8.628 214.017c1.29.035 2.579.07 3.858.093l8.701-215.695a86.982 86.982 0 01-3.931 1.585zm11.554-5.22l-8.825 219.351c1.297-.005 2.584-.02 3.863-.045l8.914-221.528a83.262 83.262 0 01-3.952 2.222zm11.643-7.397l-9.142 226.494c1.298-.051 2.59-.114 3.875-.188l9.254-229.542a76.566 76.566 0 01-3.987 3.236zm11.783-11.035l-9.559 236.817c1.301-.105 2.595-.221 3.882-.349l9.721-241.555c-1.31 1.749-2.642 3.474-4.044 5.087zm15.766-26.39c-1.16 2.857-2.415 5.537-3.691 8.137l-10.243 253.905c1.298-.16 2.595-.32 3.882-.503l10.606-262.911-.554 1.372zm8.857-21.694l-11.365 282.131c1.29-.196 2.588-.419 3.895-.669l11.738-291.543a585.25 585.25 0 00-4.268 10.081zm12.465-27.934l-12.428 307.92a389.03 389.03 0 003.901-.841l12.727-315.19a205.898 205.898 0 00-4.2 8.111zm12.206-21.518l-13.183 326.796c1.31-.337 2.609-.675 3.903-1.03l13.374-331.529a119.644 119.644 0 00-4.094 5.762zm11.916-14.898L305.264 422.16c1.313-.394 2.617-.799 3.911-1.213L322.944 79.92a84.797 84.797 0 00-4.047 3.732zm11.751-9.527L316.76 418.406l3.924-1.414 13.919-345.169a56.132 56.132 0 00-3.955 2.302zm11.567-5.661l-13.941 345.575c1.319-.544 2.632-1.082 3.928-1.638l13.924-345.162c-1.327.363-2.63.771-3.911 1.225zm11.451-2.798L339.815 409.02c1.326-.62 2.64-1.244 3.943-1.872L357.539 65.26c-1.309.097-2.6.232-3.873.406zm11.376-.642L351.39 403.295a218.119 218.119 0 003.947-2.119L368.89 65.202a92.846 92.846 0 00-3.848-.178zm11.292 1L362.989 396.82c1.329-.796 2.652-1.586 3.958-2.394l13.228-327.753a99.076 99.076 0 00-3.841-.649zm11.251 2.284l-12.962 321.189a199.808 199.808 0 003.97-2.692l12.813-317.476c-1.299-.368-2.565-.7-3.821-1.02zm11.204 3.344l-12.49 309.611c1.308-.974 2.669-2.01 3.984-3.035l12.31-305.143c-1.257-.502-2.525-.98-3.804-1.433zm11.15 4.673l-11.925 295.599a289.12 289.12 0 004.006-3.419l11.708-290.236a118.538 118.538 0 00-3.789-1.944zm11.086 6.243l-11.252 278.94a121.007 121.007 0 004.018-3.884l10.993-272.5c-1.215-.898-2.484-1.736-3.759-2.556zm11.01 8.132l-10.446 258.936a232.347 232.347 0 004.041-4.433l10.14-251.23a107.953 107.953 0 00-3.735-3.272zm10.924 10.431l-9.475 234.875a265.057 265.057 0 004.069-5.155l9.098-225.525a108.58 108.58 0 00-3.692-4.195zm10.801 13.433l-8.291 205.389a187.39 187.39 0 004.11-6.163l7.815-193.72a138.5 138.5 0 00-3.634-5.506zm10.615 17.94l-6.793 167.969a203.322 203.322 0 004.18-7.893l6.147-152.382a125.149 125.149 0 00-3.534-7.694z" fill="#FFC359"/></svg>
